X:7
T:Evil Diane
M:2/2
L:1/8
K:A
eg|"A"a2 ea fedc|"D"decd "A"BcAG|"E"EDEF GABG|"A"AGAB cdeg|
"A"a2 ea fedc|"D"decd "A"BcAG|"E"EDEF GABG|1"A"AGEG A2:|2"A"AGEG A4||
"E"EDEE GABc|d2 EF GABc|d2 cd B2 AB|GBAB GBAG|
EDEE GABc|d2 EF GABc|"D"d2 cd B2 AB|1"E"GDEG "A"A4:|2"E"GDEG "A"A2||
